X: 1474
T: Fair Haired Mary
M:C|
L:1/8
N:"collected by F. O'Neill"
B:O'Neill's 1474
Z:"Transcribed by Bob Safranek, rjs@gsp.org"
K:Gm
Gdd^c   d2 (=cB) | AFcF    dFcF   | Gdd^c  d2 (d=e) | fdcA dcBA  |
Gdd^c   d2 (=cB) | AFcF    dFcF   | Gdd^c  d2  d=e  | fdcA AG G2 ||
g2 (dg) g2 (ag)  | fdd=e f2  (fe) | g2 g^f g2  ag   | fdcA dBcA  |
gdd^f   g2 (ag)  | fdd=e f2 (^fg) | abag   ^fgag    | fdcA AG G2 |]


